dist/img/svg/property__item-icon--6.svg

<svg width="48" height="48" viewBox="0 0 48 48" fill="none" xmlns="http://www.w3.org/2000/svg">
<circle cx="24" cy="24" r="24" fill="#1F2120"/>
<path d="M26.7363 14.0273C25.9739 14.0273 25.2114 14.316 24.6367 14.8906L14.8906 24.6367C13.7124 25.815 13.6809 27.7805 14.9375 28.8809L19.166 33.1113C20.3153 34.2606 22.216 34.2606 23.3652 33.1113L33.1113 23.3652C34.2606 22.216 34.2606 20.3153 33.1113 19.166L28.8359 14.8906C28.2613 14.316 27.4988 14.0273 26.7363 14.0273ZM26.7363 15.9727C26.9684 15.9727 27.1986 16.0833 27.4199 16.3047L31.6973 20.5801C32.14 21.0228 32.14 21.5084 31.6973 21.9512L21.9512 31.6973C21.5084 32.14 21.0228 32.14 20.5801 31.6973L16.2813 27.3984L16.2559 27.375C15.921 27.0818 15.8903 26.4627 16.3027 26.0508H16.3047L17.5274 24.8281L20.5567 27.9316L21.9883 26.5352L18.9414 23.4141L20.5117 21.8438L22.084 23.5332L23.5488 22.1699L21.9277 20.4277L23.5371 18.8184L26.6328 21.9141L28.0469 20.498L24.9531 17.4023L26.0508 16.3047C26.2722 16.0833 26.5043 15.9727 26.7363 15.9727Z" fill="white"/>
</svg>

<svg width="48" height="48" viewBox="0 0 48 48" fill="none" xmlns="http://www.w3.org/2000/svg"><circle cx="24" cy="24" r="24" fill="#1F2120"/><path d="M26.736 14.027c-.762 0-1.525.289-2.1.864l-9.745 9.746c-1.179 1.178-1.21 3.143.046 4.244l4.229 4.23a2.988 2.988 0 004.2 0l9.745-9.746a2.988 2.988 0 000-4.199l-4.275-4.275a2.962 2.962 0 00-2.1-.864zm0 1.946c.232 0 .463.11.684.332l4.277 4.275c.443.443.443.928 0 1.371l-9.746 9.746c-.443.443-.928.443-1.37 0l-4.3-4.299-.025-.023c-.335-.293-.366-.912.047-1.324h.002l1.222-1.223 3.03 3.104 1.431-1.397-3.047-3.12 1.57-1.571 1.573 1.69 1.465-1.364-1.621-1.742 1.61-1.61 3.095 3.096 1.414-1.416-3.094-3.096 1.098-1.097c.221-.222.453-.332.685-.332z" fill="#fff"/></svg>
